Assets/Icons/interaction/map-marker.svg

<svg enable-background="new 0 0 60 60" viewBox="0 0 60 60" xmlns="http://www.w3.org/2000/svg"><path d="m30 9.5c-6.34 0-11.5 5.16-11.5 11.5s5.16 11.5 11.5 11.5 11.5-5.16 11.5-11.5-5.16-11.5-11.5-11.5zm0 20c-4.69 0-8.5-3.81-8.5-8.5s3.81-8.5 8.5-8.5 8.5 3.81 8.5 8.5-3.81 8.5-8.5 8.5z"/><path d="m28.98 1.53c-11.48.59-19.77 11.28-18.27 22.67 1.2 9.15 7.47 19.21 18.08 33.68.6.82 1.82.82 2.42 0 11.86-16.17 18.29-26.84 18.29-36.88 0-11.09-9.31-20.05-20.52-19.47zm1.02 52.93c-9.42-12.96-15.03-22.13-16.25-30.2-1.49-9.86 5.48-19.26 15.44-19.74 9.47-.45 17.31 7.11 17.31 16.48 0 8.89-5.79 18.72-16.5 33.46z"/></svg>

<?xml version="1.0" encoding="utf-8"?>
<!-- Generator: Adobe Illustrator 21.1.0, SVG Export Plug-In . SVG Version: 6.00 Build 0)  -->
<svg version="1.1" id="eps" xmlns="http://www.w3.org/2000/svg" xmlns:xlink="http://www.w3.org/1999/xlink" x="0px" y="0px"
	 viewBox="0 0 60 60" style="enable-background:new 0 0 60 60;" xml:space="preserve">
<g>
	<path d="M30,9.5c-6.34,0-11.5,5.16-11.5,11.5S23.66,32.5,30,32.5S41.5,27.34,41.5,21S36.34,9.5,30,9.5z M30,29.5
		c-4.69,0-8.5-3.81-8.5-8.5s3.81-8.5,8.5-8.5s8.5,3.81,8.5,8.5S34.69,29.5,30,29.5z"/>
	<path d="M28.98,1.53C17.5,2.12,9.21,12.81,10.71,24.2c1.2,9.15,7.47,19.21,18.08,33.68l0,0c0.6,0.82,1.82,0.82,2.42,0l0,0
		C43.07,41.71,49.5,31.04,49.5,21C49.5,9.91,40.19,0.95,28.98,1.53z M30,54.46c-9.42-12.96-15.03-22.13-16.25-30.2
		C12.26,14.4,19.23,5,29.19,4.52C38.66,4.07,46.5,11.63,46.5,21C46.5,29.89,40.71,39.72,30,54.46z"/>
</g>
</svg>
